img/icon/icon_1.svg

<svg height="42" width="30" xmlns="http://www.w3.org/2000/svg"><path d="m29.302 21h-2.79c-.386 0-.698.314-.698.7v.7h-1.461l-5.535-13.484c-.053-1.029-.556-1.981-1.376-2.6 0-.006 0-.011 0-.016v-5.6c0-.386-.313-.7-.698-.7h-2.791c-.385 0-.697.314-.697.7v5.6.016c-.819.617-1.324 1.567-1.379 2.593l-5.935 13.491h-1.756v-.7c0-.386-.312-.7-.698-.7h-2.79c-.386 0-.698.314-.698.7v2.8c0 .386.312.7.698.7h2.79c.386 0 .698-.314.698-.7v-.7h1.14l-3.777 8.584c-.102.251-.154.519-.154.789v3.227c.004.896.575 1.691 1.42 1.979-.012.039-.02.08-.024.121v2.8c0 .387.312.7.697.7.386 0 .698-.313.698-.7v-2.8c-.004-.041-.012-.082-.024-.121.845-.288 1.415-1.083 1.42-1.979v-1.26l4.795-11.34h4.274v1.4c0 .387.313.7.698.7s.698-.313.698-.7v-1.4h3.922l4.45 11.332v1.968c.003.887.562 1.676 1.395 1.971v2.229c0 .387.312.7.698.7.385 0 .697-.313.697-.7v-2.229c.834-.295 1.392-1.084 1.396-1.971v-3.927c0-.272-.053-.541-.155-.793l-3.522-8.58h.886v.7c0 .386.312.7.698.7h2.791c.385 0 .697-.314.697-.7v-2.8c0-.386-.312-.7-.698-.7zm-26.511 2.8h-1.396v-1.4h1.396zm11.86-18.2v-4.2h1.395v4.2zm.698 1.4c1.156 0 2.093.94 2.093 2.1s-.937 2.1-2.093 2.1-2.093-.94-2.093-2.1.937-2.1 2.093-2.1zm-11.163 27.86v1.54c0 .387-.312.7-.698.7-.385 0-.697-.313-.697-.7v-3.227c-.001-.083.014-.165.042-.243l9.626-21.87c.333.485.783.878 1.307 1.143zm11.86-12.46v-1.4c0-.387-.312-.7-.697-.7-.386 0-.698.313-.698.7v1.4h-3.682l4.154-9.823c.076.005.148.023.226.023.077 0 .139-.017.214-.022l3.857 9.822zm11.163 10.773v3.927c0 .387-.312.7-.697.7-.386 0-.698-.313-.698-.7v-2.232l-8.897-22.659c.514-.258.956-.64 1.288-1.11l8.953 21.812c.034.083.051.172.051.262zm1.396-9.373h-1.396v-1.4h1.396z" fill="#fff" fill-rule="evenodd"/></svg>

<svg 
 xmlns="http://www.w3.org/2000/svg"
 xmlns:xlink="http://www.w3.org/1999/xlink"
 width="30px" height="42px">
<path fill-rule="evenodd"  fill="rgb(255, 255, 255)"
 d="M29.302,21.000 L26.512,21.000 C26.126,21.000 25.814,21.314 25.814,21.700 L25.814,22.400 L24.353,22.400 L18.818,8.916 C18.765,7.887 18.262,6.935 17.442,6.316 C17.442,6.310 17.442,6.305 17.442,6.300 L17.442,0.700 C17.442,0.314 17.129,0.000 16.744,0.000 L13.953,0.000 C13.568,0.000 13.256,0.314 13.256,0.700 L13.256,6.300 L13.256,6.316 C12.437,6.933 11.932,7.883 11.877,8.909 L5.942,22.400 L4.186,22.400 L4.186,21.700 C4.186,21.314 3.874,21.000 3.488,21.000 L0.698,21.000 C0.312,21.000 0.000,21.314 0.000,21.700 L0.000,24.500 C0.000,24.886 0.312,25.200 0.698,25.200 L3.488,25.200 C3.874,25.200 4.186,24.886 4.186,24.500 L4.186,23.800 L5.326,23.800 L1.549,32.384 C1.447,32.635 1.395,32.903 1.395,33.173 L1.395,36.400 C1.399,37.296 1.970,38.091 2.815,38.379 C2.803,38.418 2.795,38.459 2.791,38.500 L2.791,41.300 C2.791,41.687 3.103,42.000 3.488,42.000 C3.874,42.000 4.186,41.687 4.186,41.300 L4.186,38.500 C4.182,38.459 4.174,38.418 4.162,38.379 C5.007,38.091 5.577,37.296 5.582,36.400 L5.582,35.140 L10.377,23.800 L14.651,23.800 L14.651,25.200 C14.651,25.587 14.964,25.900 15.349,25.900 C15.734,25.900 16.047,25.587 16.047,25.200 L16.047,23.800 L19.969,23.800 L24.419,35.132 L24.419,37.100 C24.422,37.987 24.981,38.776 25.814,39.071 L25.814,41.300 C25.814,41.687 26.126,42.000 26.512,42.000 C26.897,42.000 27.209,41.687 27.209,41.300 L27.209,39.071 C28.043,38.776 28.601,37.987 28.605,37.100 L28.605,33.173 C28.605,32.901 28.552,32.632 28.450,32.380 L24.928,23.800 L25.814,23.800 L25.814,24.500 C25.814,24.886 26.126,25.200 26.512,25.200 L29.303,25.200 C29.688,25.200 30.000,24.886 30.000,24.500 L30.000,21.700 C30.000,21.314 29.688,21.000 29.302,21.000 ZM2.791,23.800 L1.395,23.800 L1.395,22.400 L2.791,22.400 L2.791,23.800 ZM14.651,5.600 L14.651,1.400 L16.046,1.400 L16.046,5.600 L14.651,5.600 ZM15.349,7.000 C16.505,7.000 17.442,7.940 17.442,9.100 C17.442,10.260 16.505,11.200 15.349,11.200 C14.193,11.200 13.256,10.260 13.256,9.100 C13.256,7.940 14.193,7.000 15.349,7.000 ZM4.186,34.860 L4.186,36.400 C4.186,36.787 3.874,37.100 3.488,37.100 C3.103,37.100 2.791,36.787 2.791,36.400 L2.791,33.173 C2.790,33.090 2.805,33.008 2.833,32.930 L12.459,11.060 C12.792,11.545 13.242,11.938 13.766,12.203 L4.186,34.860 ZM16.046,22.400 L16.046,21.000 C16.046,20.613 15.734,20.300 15.349,20.300 C14.963,20.300 14.651,20.613 14.651,21.000 L14.651,22.400 L10.969,22.400 L15.123,12.577 C15.199,12.582 15.271,12.600 15.349,12.600 C15.426,12.600 15.488,12.583 15.563,12.578 L19.420,22.400 L16.046,22.400 ZM27.209,33.173 L27.209,37.100 C27.209,37.487 26.897,37.800 26.512,37.800 C26.126,37.800 25.814,37.487 25.814,37.100 L25.814,34.868 L16.917,12.209 C17.431,11.951 17.873,11.569 18.205,11.099 L27.158,32.911 C27.192,32.994 27.209,33.083 27.209,33.173 ZM28.605,23.800 L27.209,23.800 L27.209,22.400 L28.605,22.400 L28.605,23.800 Z"/>
</svg>
